src/Pure/16/symbolic/actions/xapp-diaporama-symbolic.svg

<?xml version="1.0" encoding="UTF-8" standalone="no"?>
<svg
   width="16"
   height="16"
   version="1.1"
   id="svg2"
   sodipodi:docname="xapp-diaporama-symbolic.svg"
   inkscape:version="1.4.2 (ebf0e940d0, 2025-05-08)"
   xmlns:inkscape="http://www.inkscape.org/namespaces/inkscape"
   xmlns:sodipodi="http://sodipodi.sourceforge.net/DTD/sodipodi-0.dtd"
   xmlns="http://www.w3.org/2000/svg"
   xmlns:svg="http://www.w3.org/2000/svg">
  <defs
     id="defs2">
      <style
          id="current-color-scheme"
          type="text/css">
          .ColorScheme-Text { color:#363636; }
      </style>
  </defs>
  <sodipodi:namedview
     id="namedview2"
     pagecolor="#ffffff"
     bordercolor="#000000"
     borderopacity="0.25"
     inkscape:showpageshadow="2"
     inkscape:pageopacity="0.0"
     inkscape:pagecheckerboard="0"
     inkscape:deskcolor="#d1d1d1"
     inkscape:zoom="49.6875"
     inkscape:cx="8"
     inkscape:cy="8"
     inkscape:window-width="1920"
     inkscape:window-height="1010"
     inkscape:window-x="0"
     inkscape:window-y="0"
     inkscape:window-maximized="1"
     inkscape:current-layer="svg2" />
  <path
     id="path1"
     style="fill:currentColor"
     class="ColorScheme-Text"
     d="M 0 2 L 0 3 L 1 3 L 1 11.035156 C 1 11.581156 1.455 12.035156 2 12.035156 L 7 12.035156 L 7 13.25 L 4.2792969 15.09375 C 4.0192969 15.21875 3.9277969 15.60675 4.0917969 15.84375 C 4.2557969 16.07975 4.6327969 16.10425 4.8417969 15.90625 L 7.5 14.09375 L 10.158203 15.90625 C 10.367203 16.10425 10.745203 16.07975 10.908203 15.84375 C 11.072203 15.60675 10.978703 15.21875 10.720703 15.09375 L 8 13.25 L 8 12.035156 L 13 12.035156 C 13.545 12.035156 14 11.581156 14 11.035156 L 14 3 L 15 3 L 15 2 L 0 2 z M 2 3 L 13 3 L 13 10.5 C 13 11 12.5 11 12.5 11 L 2.5 11 C 2 11 2 10.5 2 10.5 L 2 3 z M 6 5 L 6 9 L 6.4003906 9 C 6.4703606 9.0004 6.5387214 8.9836988 6.5996094 8.9492188 L 9.4003906 7.3496094 C 9.5246706 7.2808494 9.5878906 7.14062 9.5878906 7 C 9.5878906 6.85938 9.5246706 6.7191466 9.4003906 6.6503906 L 6.5996094 5.0507812 C 6.5387194 5.0162813 6.4703546 4.999476 6.4003906 5 L 6 5 z " />
</svg>

<svg width="16" height="16" version="1.1" xmlns="http://www.w3.org/2000/svg">
 <path d="m6 5h0.40039c0.069964-5.24e-4 0.13833 0.016281 0.19922 0.050781l2.8008 1.5996c0.12428 0.068756 0.1875 0.20899 0.1875 0.34961s-0.06322 0.28085-0.1875 0.34961l-2.8008 1.5996c-0.060888 0.03448-0.12925 0.051181-0.19922 0.050781h-0.40039v-4z" fill="#363636"/>
 <path d="m0 2v1h1v8.035c0 0.546 0.455 1 1 1h5v1.215l-2.72 1.844c-0.26 0.125-0.352 0.513-0.188 0.75 0.164 0.236 0.541 0.26 0.75 0.062l2.658-1.812 2.658 1.812c0.209 0.198 0.587 0.174 0.75-0.062 0.164-0.237 0.071-0.625-0.187-0.75l-2.721-1.844v-1.215h5c0.545 0 1-0.454 1-1v-8.035h1v-1zm2 1h11v7.5c0 0.5-0.5 0.5-0.5 0.5h-10c-0.5 0-0.5-0.5-0.5-0.5z" color="#000000" fill="#363636" font-family="sans-serif" font-weight="400" overflow="visible" style="font-feature-settings:normal;font-variant-alternates:normal;font-variant-caps:normal;font-variant-ligatures:normal;font-variant-numeric:normal;font-variant-position:normal;isolation:auto;mix-blend-mode:normal;shape-padding:0;text-decoration-color:#000000;text-decoration-line:none;text-decoration-style:solid;text-indent:0;text-orientation:mixed;text-transform:none"/>
</svg>
